!!!OTL: "Rheinschifferlied" DER SCHIFFER AUF DEM BLANKEN RHEIN
!!!ARE: Europa, Mitteleuropa, Deutschland, Gegend bei Koeln
!!!SCT: Z0227
!!!YEM: Copyright 1995, estate of Helmut Schaffrath.
**kern
*ICvox
*Ivox
*M4/4
*k[f#c#g#]
*A:
{4e
=1
8a
8g#
8a
8b
8cc#
8b
8cc#
8dd
=2
4ee
8ee
8dd
4cc#}
{4ee
=3
8dd
8dd
8ee
8ee
4cc#
4ee
=4
8dd
8dd
8ee
8ee
4cc#}
{4e
=5
8a
8g#
8a
8b
8cc#
8b
8cc#
8dd
=6
4ee
8ee
8dd
4cc#}
{4ee
=7
8dd
8dd
8ee
8ee
4cc#
4ee
=8
8dd
8dd
8ee
8ee
4cc#}
{4ee
=9
4cc#
4ee
4ee
8dd
8cc#
=10
4dd
4ff#
4ff#}
{8ee
8dd
=11
4cc#
4ee
4ee
8dd
8cc#
=12
8b
8b
4.ee
8dd
8cc#}
{8b
=13
8a
8g#
8a
8b
8cc#
8b
8cc#
8dd
=14
8ff#
8ee
8ee
8dd
4cc#}
{4ee
=15
8dd
8dd
8ee
8ee
4cc#
4ee
=16
8dd
8dd
8ee
8ee
4cc#}
==
!!!AGN: Schiffer - Lied
!!!ONB: ESAC (Essen Associative Code) Database: ZUCCAL
!!!AMT: simple quadruple
!!!AIN: vox
!!!EED: Helmut Schaffrath
!!!EEV: 1.0
*-
